svgs/deepl.svg

<svg viewBox="0 0 192 192" xml:space="preserve" style="fill-rule:evenodd;clip-rule:evenodd;stroke-linejoin:round;stroke-miterlimit:2" xmlns="http://www.w3.org/2000/svg"><path d="M523 228.804a5.999 5.999 0 0 0-6 0l-56.869 32.833a6 6 0 0 0-3 5.196V332.5a6 6 0 0 0 2.988 5.19l85.304 49.5a6 6 0 0 0 9.012-5.19v-29.619l25.434-14.685a5.997 5.997 0 0 0 3-5.196v-65.667a6 6 0 0 0-3-5.196L523 228.804Zm-3 12.124 50.869 29.37v58.738l-25.434 14.685a5.998 5.998 0 0 0-3 5.196v22.664l-73.304-42.536v-58.747L520 240.928Zm-10.752 72.273a11.854 11.854 0 0 0-5.936-1.583c-6.577 0-11.917 5.34-11.917 11.917 0 6.578 5.34 11.918 11.917 11.918 6.554 0 11.88-5.303 11.917-11.848l7.762-4.463a6.004 6.004 0 0 0 2.211-8.192 6.004 6.004 0 0 0-8.193-2.211l-7.761 4.462Zm-.009-24.737 21.605 12.449c.032 6.551 5.36 11.859 11.917 11.859 6.578 0 11.918-5.34 11.918-11.918 0-6.577-5.34-11.917-11.918-11.917-2.156 0-4.18.574-5.926 1.578l-21.606-12.449c-.032-6.551-5.359-11.859-11.917-11.859-6.577 0-11.917 5.34-11.917 11.918 0 6.577 5.34 11.917 11.917 11.917 2.157 0 4.18-.574 5.927-1.578Z" style="fill-rule:evenodd;clip-rule:evenodd;stroke-linejoin:round;stroke-miterlimit:2" transform="translate(-424 -212)"/></svg>

<?xml version="1.0" encoding="UTF-8" standalone="no"?>
<svg
   width="100%"
   height="100%"
   viewBox="0 0 192 192"
   version="1.1"
   xml:space="preserve"
   style="fill-rule:evenodd;clip-rule:evenodd;stroke-linejoin:round;stroke-miterlimit:2;"
   id="svg833"
   sodipodi:docname="deepl.svg"
   inkscape:version="1.2.1 (9c6d41e410, 2022-07-14)"
   xmlns:inkscape="http://www.inkscape.org/namespaces/inkscape"
   xmlns:sodipodi="http://sodipodi.sourceforge.net/DTD/sodipodi-0.dtd"
   xmlns="http://www.w3.org/2000/svg"
   xmlns:svg="http://www.w3.org/2000/svg"><defs
   id="defs837" /><sodipodi:namedview
   id="namedview835"
   pagecolor="#ffffff"
   bordercolor="#000000"
   borderopacity="0.25"
   inkscape:showpageshadow="2"
   inkscape:pageopacity="0.0"
   inkscape:pagecheckerboard="0"
   inkscape:deskcolor="#d1d1d1"
   showgrid="false"
   inkscape:zoom="5.3489583"
   inkscape:cx="96.093476"
   inkscape:cy="95.906524"
   inkscape:window-width="1274"
   inkscape:window-height="1303"
   inkscape:window-x="1282"
   inkscape:window-y="36"
   inkscape:window-maximized="0"
   inkscape:current-layer="svg833" />
    <path
   d="M523,228.804C521.144,227.732 518.856,227.732 517,228.804L460.131,261.637C458.274,262.709 457.131,264.69 457.131,266.833L457.131,332.5C457.131,334.639 458.269,336.616 460.119,337.69L545.423,387.19C547.279,388.267 549.569,388.27 551.429,387.199C553.289,386.129 554.435,384.146 554.435,382L554.435,352.381C554.435,352.381 579.869,337.696 579.869,337.696C581.726,336.625 582.869,334.644 582.869,332.5L582.869,266.833C582.869,264.69 581.726,262.709 579.869,261.637L523,228.804ZM520,240.928L570.869,270.298C570.869,270.298 570.869,329.036 570.869,329.036C570.869,329.036 545.435,343.721 545.435,343.721C543.578,344.793 542.435,346.773 542.435,348.917L542.435,371.581C542.435,371.581 469.131,329.045 469.131,329.045C469.131,329.045 469.131,270.298 469.131,270.298L520,240.928ZM509.248,313.201C507.5,312.194 505.473,311.618 503.312,311.618C496.735,311.618 491.395,316.958 491.395,323.535C491.395,330.113 496.735,335.453 503.312,335.453C509.866,335.453 515.192,330.15 515.229,323.605L522.991,319.142C525.861,317.492 526.852,313.821 525.202,310.95C523.551,308.079 519.88,307.089 517.009,308.739L509.248,313.201ZM509.239,288.464L530.844,300.913C530.876,307.464 536.204,312.772 542.761,312.772C549.339,312.772 554.679,307.432 554.679,300.854C554.679,294.277 549.339,288.937 542.761,288.937C540.605,288.937 538.581,289.511 536.835,290.515L515.229,278.066C515.197,271.515 509.87,266.207 503.312,266.207C496.735,266.207 491.395,271.547 491.395,278.125C491.395,284.702 496.735,290.042 503.312,290.042C505.469,290.042 507.492,289.468 509.239,288.464Z"
   id="path827"
   style="fill-rule:evenodd;clip-rule:evenodd;stroke-linejoin:round;stroke-miterlimit:2"
   transform="translate(-424,-212)"
   inkscape:label="deepl" />
</svg>
